X:1
C:Johan Emil Lönn
T:Rhenländer efter Johan Emil Lönn
Z:Transkription gjord av Jonas Brunskog, 5/7 2008
R:Rhenländer
O:Höör, Skåne
M:2/4
L:1/16
K:G
|:"G" G2Bd g2"D"(fe)| "G"d2G2 B4|"D7"D2(FA) c2(BA)|"G"G2e2 (dc)(BA)|
G2Bd g2"D"(fe)| "G"d2G2 B4|"D7"D2(FA) c2(BA)|"G"G2B2 G2z2:|
|:"G"d2Bd g4|"Am"e2ce a4|"D7"(fg)(fe) d2(eg)|"G"g2bg d4|
d2(Bd) g2(gf)|"Am"e2(ce) a2(ag)|"D7"(fg)(fe) d2(ef)|"G"g2g2  [gB]2z2:|

